X:64
T:Polonäs efter Rondahl i C
R:Slängpolska
O:Slite, Gotland
B:Rondahls nothäfte
B:SMUS - katalog MMD50 bild 25 nr 64
N:ur ett notehäfte märkt "Carl Nicolaus Arvid Rondahl"
M:3/4
L:1/16
K:C
g2gf e2c'2 a2g2 | fefa g4 e4 | f2af e2ge d2fd | cBce dcBA G4 |
g2gf e2c'2 a2g2 | fefa g4 e4 | f2a2 e2g2 d2f2 | edcB d4 c4 ::
GABc d2G2 e2G2 | f2G2 d2G2 e2G2 | GABc d2d2 e2e2 | defe dcBA G4 |
g2gf e2c'2 a2g2 | fefa g4 e4 | f2a2 e2g2 d2f2 | edcB d4 c4 :|

